; generated by Slic3r 1.0.0RC2 on 2014-02-07 at 09:40:15

; layer_height = 0.20
; perimeters = 3
; top_solid_layers = 5
; bottom_solid_layers = 2
; fill_density = 0.20
; perimeter_speed = 60
; infill_speed = 50
; travel_speed = 200
; nozzle_diameter = 0.4
; filament_diameter = 2.92
; extrusion_multiplier = 1
; perimeters extrusion width = 0.40mm
; infill extrusion width = 0.67mm
; solid infill extrusion width = 0.50mm
; top infill extrusion width = 0.30mm
; first layer extrusion width = 0.39mm

G21 ; set units to millimeters
M107
M190 S55 ; wait for bed temperature to be reached
M104 S220 ; set temperature
G28 ; home all axes
M109 S220 ; wait for temperature to be reached
G90 ; use absolute coordinates
G92 E0
M82 ; use absolute distances for extrusion
M204 S500
G1 F2100.000 E-2.00000
G1 Z0.350 F12000.000
G92 E0
G1 X92.971 Y84.100 F12000.000
G1 Z0.300 F12000.000
G1 E2.00000 F2100.000
G1 X94.100 Y82.971 E2.02807 F1200
G1 X95.410 Y82.051 E2.05620
G1 X96.861 Y81.380 E2.08426
G1 X98.410 Y80.960 E2.11247
G1 X100.001 Y80.821 E2.14051
G1 X129.991 Y80.821 E2.66736
G1 X131.581 Y80.960 E2.69540
G1 X133.130 Y81.380 E2.72362
G1 X134.581 Y82.051 E2.75168
G1 X135.891 Y82.971 E2.77980
G1 X137.021 Y84.100 E2.80787
G1 X137.940 Y85.410 E2.83599
G1 X138.611 Y86.861 E2.86406
G1 X139.031 Y88.410 E2.89227
G1 X139.171 Y90.001 E2.92031
G1 X139.171 Y119.991 E3.44716
G1 X139.031 Y121.581 E3.47520
G1 X138.611 Y123.131 E3.50341
G1 X137.940 Y124.581 E3.53147
G1 X137.021 Y125.891 E3.55960
G1 X135.891 Y127.021 E3.58767
G1 X134.581 Y127.941 E3.61579
G1 X133.130 Y128.611 E3.64385
G1 X131.581 Y129.031 E3.67207
G1 X129.991 Y129.171 E3.70011
G1 X100.001 Y129.171 E4.22696
G1 X98.410 Y129.031 E4.25500
G1 X96.861 Y128.611 E4.28321
G1 X95.410 Y127.941 E4.31127
G1 X94.100 Y127.021 E4.33940
G1 X92.971 Y125.891 E4.36747
G1 X92.051 Y124.581 E4.39559
G1 X91.380 Y123.131 E4.42365
G1 X90.960 Y121.581 E4.45186
G1 X90.821 Y119.991 E4.47990
G1 X90.821 Y90.001 E5.00676
G1 X90.960 Y88.410 E5.03480
G1 X91.380 Y86.861 E5.06301
G1 X92.051 Y85.410 E5.09107
G1 X92.937 Y84.149 E5.11816
G1 X93.270 Y84.350 F12000.000
G1 X94.350 Y83.270 E5.14499 F1200
G1 X95.611 Y82.391 E5.17199
G1 X97.001 Y81.751 E5.19887
G1 X98.471 Y81.350 E5.22564
G1 X100.001 Y81.221 E5.25261
G1 X129.991 Y81.221 E5.77947
G1 X131.521 Y81.350 E5.80644
G1 X132.991 Y81.751 E5.83321
G1 X134.380 Y82.391 E5.86009
G1 X135.641 Y83.270 E5.88709
G1 X136.721 Y84.350 E5.91392
G1 X137.601 Y85.611 E5.94092
G1 X138.241 Y87.001 E5.96780
G1 X138.641 Y88.471 E5.99457
G1 X138.771 Y90.001 E6.02154
G1 X138.771 Y119.991 E6.54840
G1 X138.641 Y121.521 E6.57537
G1 X138.241 Y122.991 E6.60213
G1 X137.601 Y124.381 E6.62902
G1 X136.721 Y125.641 E6.65602
G1 X135.641 Y126.721 E6.68285
G1 X134.380 Y127.601 E6.70985
G1 X132.991 Y128.241 E6.73673
G1 X131.521 Y128.641 E6.76349
G1 X129.991 Y128.771 E6.79047
G1 X100.001 Y128.771 E7.31732
G1 X98.471 Y128.641 E7.34430
G1 X97.001 Y128.241 E7.37106
G1 X95.611 Y127.601 E7.39794
G1 X94.350 Y126.721 E7.42494
G1 X93.270 Y125.641 E7.45178
G1 X92.391 Y124.381 E7.47878
G1 X91.751 Y122.991 E7.50566
G1 X91.350 Y121.521 E7.53242
G1 X91.221 Y119.991 E7.55940
G1 X91.221 Y90.001 E8.08625
G1 X91.350 Y88.471 E8.11323
G1 X91.751 Y87.001 E8.13999
G1 X92.391 Y85.611 E8.16687
G1 X93.237 Y84.399 E8.19284
G1 X93.571 Y84.611 F12000.000
G1 X94.611 Y83.571 E8.21868 F1200
G1 X95.801 Y82.731 E8.24427
G1 X97.130 Y82.111 E8.27005
G1 X98.541 Y81.740 E8.29565
G1 X100.001 Y81.611 E8.32140
G1 X129.991 Y81.611 E8.84826
G1 X131.451 Y81.740 E8.87401
G1 X132.861 Y82.111 E8.89962
G1 X134.190 Y82.731 E8.92540
G1 X135.380 Y83.571 E8.95099
G1 X136.421 Y84.611 E8.97682
G1 X137.261 Y85.801 E9.00241
G1 X137.880 Y87.130 E9.02819
G1 X138.250 Y88.541 E9.05380
G1 X138.380 Y90.001 E9.07955
G1 X138.380 Y119.991 E9.60640
G1 X138.250 Y121.451 E9.63215
G1 X137.880 Y122.861 E9.65776
G1 X137.261 Y124.191 E9.68354
G1 X136.421 Y125.381 E9.70913
G1 X135.380 Y126.421 E9.73497
G1 X134.190 Y127.261 E9.76056
G1 X132.861 Y127.881 E9.78634
G1 X131.451 Y128.250 E9.81195
G1 X129.991 Y128.380 E9.83770
G1 X100.001 Y128.380 E10.36455
G1 X98.541 Y128.250 E10.39030
G1 X97.130 Y127.881 E10.41591
G1 X95.801 Y127.261 E10.44169
G1 X94.611 Y126.421 E10.46728
G1 X93.571 Y125.381 E10.49312
G1 X92.731 Y124.191 E10.51871
G1 X92.111 Y122.861 E10.54448
G1 X91.740 Y121.451 E10.57009
G1 X91.611 Y119.991 E10.59584
G1 X91.611 Y90.001 E11.12270
G1 X91.740 Y88.541 E11.14845
G1 X92.111 Y87.130 E11.17406
G1 X92.731 Y85.801 E11.19984
G1 X93.537 Y84.659 E11.22439
G1 F2100.000 E9.22439
G1 Z0.350 F12000.000
G92 E0
G1 X100.980 Y90.980 F12000.000
G1 Z0.300 F12000.000
G1 E2.00000 F2100.000
G1 X129.020 Y90.980 E2.49260 F1200
G1 X129.020 Y119.020 E2.98521
G1 X100.980 Y119.020 E3.47781
G1 X100.980 Y91.039 E3.96938
G1 F2100.000 E1.96938
G1 Z0.350 F12000.000
G92 E0
G1 X129.412 Y119.412 F12000.000
G1 Z0.300 F12000.000
G1 E2.00000 F2100.000
G1 X100.588 Y119.412 E2.50638 F1200
G1 X100.588 Y90.588 E3.01276
G1 X129.412 Y90.588 E3.51915
G1 X129.412 Y119.354 E4.02450
G1 X129.804 Y119.805 F12000.000
G1 X100.195 Y119.805 E4.54466 F1200
G1 X100.195 Y90.195 E5.06482
G1 X129.804 Y90.195 E5.58498
G1 X129.804 Y119.746 E6.10410
G1 X129.465 Y119.608 F12000.000
G1 F2100.000 E4.10410
G1 Z0.350 F12000.000
G92 E0
G1 X101.284 Y118.756 F12000.000
G1 Z0.300 F12000.000
G1 E2.00000 F2100.000
G1 X101.244 Y118.716 E2.00098 F1200
G1 X101.244 Y118.161 E2.01073
G1 X101.839 Y118.756 E2.02551
G1 X102.394 Y118.756 E2.03526
G1 X101.244 Y117.606 E2.06384
G1 X101.244 Y117.051 E2.07359
G1 X102.949 Y118.756 E2.11596
G1 X103.504 Y118.756 E2.12572
G1 X101.244 Y116.496 E2.18189
G1 X101.244 Y115.941 E2.19165
G1 X104.059 Y118.756 E2.26162
G1 X104.614 Y118.756 E2.27137
G1 X101.244 Y115.386 E2.35514
G1 X101.244 Y114.831 E2.36490
G1 X105.169 Y118.756 E2.46246
G1 X105.724 Y118.756 E2.47222
G1 X101.244 Y114.276 E2.58358
G1 X101.244 Y113.721 E2.59334
G1 X106.279 Y118.756 E2.71850
G1 X106.834 Y118.756 E2.72826
G1 X101.244 Y113.166 E2.86722
G1 X101.244 Y112.611 E2.87698
G1 X107.389 Y118.756 E3.02973
G1 X107.944 Y118.756 E3.03949
G1 X101.244 Y112.056 E3.20605
G1 X101.244 Y111.501 E3.21581
G1 X108.499 Y118.756 E3.39616
G1 X109.054 Y118.756 E3.40592
G1 X101.244 Y110.946 E3.60007
G1 X101.244 Y110.391 E3.60983
G1 X109.608 Y118.756 E3.81778
G1 X110.163 Y118.756 E3.82754
G1 X101.244 Y109.837 E4.04929
G1 X101.244 Y109.282 E4.05905
G1 X110.718 Y118.756 E4.29460
G1 X111.273 Y118.756 E4.30436
G1 X101.244 Y108.727 E4.55370
G1 X101.244 Y108.172 E4.56346
G1 X111.828 Y118.756 E4.82661
G1 X112.383 Y118.756 E4.83636
G1 X101.244 Y107.617 E5.11331
G1 X101.244 Y107.062 E5.12307
G1 X112.938 Y118.756 E5.41381
G1 X113.493 Y118.756 E5.42357
G1 X101.244 Y106.507 E5.72811
G1 X101.244 Y105.952 E5.73787
G1 X114.048 Y118.756 E6.05621
G1 X114.603 Y118.756 E6.06596
G1 X101.244 Y105.397 E6.39810
G1 X101.244 Y104.842 E6.40786
G1 X115.158 Y118.756 E6.75380
G1 X115.713 Y118.756 E6.76355
G1 X101.244 Y104.287 E7.12329
G1 X101.244 Y103.732 E7.13305
G1 X116.268 Y118.756 E7.50658
G1 X116.823 Y118.756 E7.51634
G1 X101.244 Y103.177 E7.90367
G1 X101.244 Y102.622 E7.91343
G1 X117.378 Y118.756 E8.31456
G1 X117.933 Y118.756 E8.32432
G1 X101.244 Y102.067 E8.73925
G1 X101.244 Y101.512 E8.74900
G1 X118.488 Y118.756 E9.17773
G1 X119.043 Y118.756 E9.18749
G1 X101.244 Y100.957 E9.63002
G1 X101.244 Y100.402 E9.63977
G1 X119.598 Y118.756 E10.09610
G1 X120.153 Y118.756 E10.10586
G1 X101.244 Y99.847 E10.57598
G1 X101.244 Y99.292 E10.58574
G1 X120.708 Y118.756 E11.06966
G1 X121.263 Y118.756 E11.07942
G1 X101.244 Y98.737 E11.57714
G1 X101.244 Y98.182 E11.58689
G1 X121.818 Y118.756 E12.09841
G1 X122.373 Y118.756 E12.10817
G1 X101.244 Y97.627 E12.63349
G1 X101.244 Y97.072 E12.64324
G1 X122.928 Y118.756 E13.18236
G1 X123.483 Y118.756 E13.19212
G1 X101.244 Y96.517 E13.74503
G1 X101.244 Y95.962 E13.75479
G1 X124.038 Y118.756 E14.32150
G1 X124.593 Y118.756 E14.33126
G1 X101.244 Y95.407 E14.91177
G1 X101.244 Y94.852 E14.92153
G1 X125.148 Y118.756 E15.51584
G1 X125.703 Y118.756 E15.52559
G1 X101.244 Y94.297 E16.13370
G1 X101.244 Y93.742 E16.14346
G1 X126.258 Y118.756 E16.76537
G1 X126.813 Y118.756 E16.77512
G1 X101.244 Y93.187 E17.41083
G1 X101.244 Y92.632 E17.42059
G1 X127.368 Y118.756 E18.07009
G1 X127.923 Y118.756 E18.07985
G1 X101.244 Y92.077 E18.74315
G1 X101.244 Y91.522 E18.75291
G1 X128.478 Y118.756 E19.43001
G1 X128.756 Y118.478 E19.43691
G1 X101.522 Y91.244 E20.11401
G1 X102.077 Y91.244 E20.12376
G1 X128.756 Y117.923 E20.78707
G1 X128.756 Y117.368 E20.79682
G1 X102.632 Y91.244 E21.44633
G1 X103.187 Y91.244 E21.45609
G1 X128.756 Y116.813 E22.09179
G1 X128.756 Y116.258 E22.10155
G1 X103.742 Y91.244 E22.72345
G1 X104.297 Y91.244 E22.73321
G1 X128.756 Y115.703 E23.34132
G1 X128.756 Y115.148 E23.35108
G1 X104.852 Y91.244 E23.94539
G1 X105.407 Y91.244 E23.95514
G1 X128.756 Y114.593 E24.53566
G1 X128.756 Y114.038 E24.54541
G1 X105.962 Y91.244 E25.11213
G1 X106.517 Y91.244 E25.12188
G1 X128.756 Y113.483 E25.67480
G1 X128.756 Y112.928 E25.68455
G1 X107.072 Y91.244 E26.22367
G1 X107.627 Y91.244 E26.23343
G1 X128.756 Y112.373 E26.75874
G1 X128.756 Y111.818 E26.76850
G1 X108.182 Y91.244 E27.28002
G1 X108.737 Y91.244 E27.28978
G1 X128.756 Y111.263 E27.78750
G1 X128.756 Y110.708 E27.79726
G1 X109.292 Y91.244 E28.28118
G1 X109.847 Y91.244 E28.29093
G1 X128.756 Y110.153 E28.76106
G1 X128.756 Y109.598 E28.77082
G1 X110.402 Y91.244 E29.22714
G1 X110.957 Y91.244 E29.23690
G1 X128.756 Y109.043 E29.67942
G1 X128.756 Y108.488 E29.68918
G1 X111.512 Y91.244 E30.11791
G1 X112.067 Y91.244 E30.12767
G1 X128.756 Y107.933 E30.54260
G1 X128.756 Y107.378 E30.55235
G1 X112.622 Y91.244 E30.95348
G1 X113.177 Y91.244 E30.96324
G1 X128.756 Y106.823 E31.35057
G1 X128.756 Y106.268 E31.36033
G1 X113.732 Y91.244 E31.73387
G1 X114.287 Y91.244 E31.74362
G1 X128.756 Y105.713 E32.10336
G1 X128.756 Y105.158 E32.11312
G1 X114.842 Y91.244 E32.45905
G1 X115.397 Y91.244 E32.46881
G1 X128.756 Y104.603 E32.80095
G1 X128.756 Y104.048 E32.81071
G1 X115.952 Y91.244 E33.12905
G1 X116.507 Y91.244 E33.13880
G1 X128.756 Y103.493 E33.44335
G1 X128.756 Y102.938 E33.45310
G1 X117.062 Y91.244 E33.74385
G1 X117.617 Y91.244 E33.75360
G1 X128.756 Y102.383 E34.03055
G1 X128.756 Y101.828 E34.04031
G1 X118.172 Y91.244 E34.30345
G1 X118.727 Y91.244 E34.31321
G1 X128.756 Y101.273 E34.56256
G1 X128.756 Y100.718 E34.57231
G1 X119.282 Y91.244 E34.80786
G1 X119.837 Y91.244 E34.81762
G1 X128.756 Y100.163 E35.03937
G1 X128.756 Y99.608 E35.04913
G1 X120.391 Y91.244 E35.25708
G1 X120.946 Y91.244 E35.26684
G1 X128.756 Y99.054 E35.46099
G1 X128.756 Y98.499 E35.47075
G1 X121.501 Y91.244 E35.65111
G1 X122.056 Y91.244 E35.66086
G1 X128.756 Y97.944 E35.82742
G1 X128.756 Y97.389 E35.83718
G1 X122.611 Y91.244 E35.98994
G1 X123.166 Y91.244 E35.99969
G1 X128.756 Y96.834 E36.13865
G1 X128.756 Y96.279 E36.14841
G1 X123.721 Y91.244 E36.27357
G1 X124.276 Y91.244 E36.28333
G1 X128.756 Y95.724 E36.39469
G1 X128.756 Y95.169 E36.40445
G1 X124.831 Y91.244 E36.50201
G1 X125.386 Y91.244 E36.51177
G1 X128.756 Y94.614 E36.59554
G1 X128.756 Y94.059 E36.60530
G1 X125.941 Y91.244 E36.67526
G1 X126.496 Y91.244 E36.68502
G1 X128.756 Y93.504 E36.74119
G1 X128.756 Y92.949 E36.75095
G1 X127.051 Y91.244 E36.79332
G1 X127.606 Y91.244 E36.80307
G1 X128.756 Y92.394 E36.83165
G1 X128.756 Y91.839 E36.84140
G1 X128.161 Y91.244 E36.85618
G1 X128.716 Y91.244 E36.86594
G1 X128.756 Y91.284 E36.86691
M204 S1500
G1 F2100.000 E34.86691
G1 Z0.550 F12000.000
G92 E0
G1 X129.000 Y91.001 F12000.000
G1 Z0.500 F12000.000
G1 E2.00000 F2100.000
M204 S1500
G1 X129.000 Y119.000 E2.33449 F3600
G1 X101.001 Y119.000 E2.66897
G1 X101.001 Y91.001 E3.00346
G1 X128.940 Y91.001 E3.33722
M204 S1500
G1 F2100.000 E1.33722
G1 Z0.550 F12000.000
G92 E0
G1 X129.399 Y119.400 F12000.000
G1 Z0.500 F12000.000
G1 E2.00000 F2100.000
M204 S1500
G1 X100.601 Y119.400 E2.34404 F3600
G1 X100.601 Y90.600 E2.68808
G1 X129.399 Y90.600 E3.03213
G1 X129.399 Y119.340 E3.37545
M204 S1500
G1 X129.799 Y119.799 F12000.000
M204 S1500
G1 X100.201 Y119.799 E3.72905 F1800
G1 X100.201 Y90.201 E4.08265
G1 X129.799 Y90.201 E4.43625
G1 X129.799 Y119.739 E4.78913
M204 S1500
G1 X129.453 Y119.600 F12000.000
G1 F2100.000 E2.78913
G1 Z0.550 F12000.000
G92 E0
G1 X128.716 Y118.668 F12000.000
G1 Z0.500 F12000.000
G1 E2.00000 F2100.000
M204 S1500
G1 X128.668 Y118.716 E2.00099 F1800
G1 X127.983 Y118.716 E2.01089
G1 X128.716 Y117.983 E2.02587
G1 X128.716 Y117.298 E2.03577
G1 X127.298 Y118.716 E2.06476
G1 X126.614 Y118.716 E2.07465
G1 X128.716 Y116.614 E2.11763
G1 X128.716 Y115.929 E2.12753
G1 X125.929 Y118.716 E2.18451
G1 X125.245 Y118.716 E2.19441
G1 X128.716 Y115.245 E2.26538
G1 X128.716 Y114.560 E2.27528
G1 X124.560 Y118.716 E2.36025
G1 X123.875 Y118.716 E2.37015
G1 X128.716 Y113.875 E2.46912
G1 X128.716 Y113.191 E2.47902
G1 X123.191 Y118.716 E2.59199
G1 X122.506 Y118.716 E2.60188
G1 X128.716 Y112.506 E2.72885
G1 X128.716 Y111.822 E2.73874
G1 X121.822 Y118.716 E2.87971
G1 X121.137 Y118.716 E2.88960
G1 X128.716 Y111.137 E3.04456
G1 X128.716 Y110.453 E3.05446
G1 X120.453 Y118.716 E3.22342
G1 X119.768 Y118.716 E3.23331
G1 X128.716 Y109.768 E3.41627
G1 X128.716 Y109.083 E3.42616
G1 X119.083 Y118.716 E3.62311
G1 X118.399 Y118.716 E3.63301
G1 X128.716 Y108.399 E3.84396
G1 X128.716 Y107.714 E3.85386
G1 X117.714 Y118.716 E4.07880
G1 X117.030 Y118.716 E4.08870
G1 X128.716 Y107.030 E4.32764
G1 X128.716 Y106.345 E4.33754
G1 X116.345 Y118.716 E4.59048
G1 X115.660 Y118.716 E4.60037
G1 X128.716 Y105.660 E4.86731
G1 X128.716 Y104.976 E4.87721
G1 X114.976 Y118.716 E5.15814
G1 X114.291 Y118.716 E5.16804
G1 X128.716 Y104.291 E5.46297
G1 X128.716 Y103.607 E5.47286
G1 X113.607 Y118.716 E5.78179
G1 X112.922 Y118.716 E5.79169
G1 X128.716 Y102.922 E6.11461
G1 X128.716 Y102.237 E6.12451
G1 X112.237 Y118.716 E6.46143
G1 X111.553 Y118.716 E6.47133
G1 X128.716 Y101.553 E6.82225
G1 X128.716 Y100.868 E6.83215
G1 X110.868 Y118.716 E7.19706
G1 X110.184 Y118.716 E7.20696
G1 X128.716 Y100.184 E7.58587
G1 X128.716 Y99.499 E7.59577
G1 X109.499 Y118.716 E7.98868
G1 X108.814 Y118.716 E7.99858
G1 X128.716 Y98.814 E8.40549
G1 X128.716 Y98.130 E8.41538
G1 X108.130 Y118.716 E8.83629
G1 X107.445 Y118.716 E8.84619
G1 X128.716 Y97.445 E9.28109
G1 X128.716 Y96.761 E9.29099
G1 X106.761 Y118.716 E9.73988
G1 X106.076 Y118.716 E9.74978
G1 X128.716 Y96.076 E10.21268
G1 X128.716 Y95.391 E10.22258
G1 X105.391 Y118.716 E10.69947
G1 X104.707 Y118.716 E10.70937
G1 X128.716 Y94.707 E11.20026
G1 X128.716 Y94.022 E11.21015
G1 X104.022 Y118.716 E11.71504
G1 X103.338 Y118.716 E11.72494
G1 X128.716 Y93.338 E12.24382
G1 X128.716 Y92.653 E12.25372
G1 X102.653 Y118.716 E12.78660
G1 X101.968 Y118.716 E12.79650
G1 X128.716 Y91.968 E13.34338
G1 X128.692 Y91.308 E13.35293
G1 X101.308 Y118.692 E13.91282
G1 X101.284 Y118.031 E13.92237
G1 X128.031 Y91.284 E14.46925
G1 X127.347 Y91.284 E14.47915
G1 X101.284 Y117.347 E15.01203
G1 X101.284 Y116.662 E15.02193
G1 X126.662 Y91.284 E15.54081
G1 X125.978 Y91.284 E15.55071
G1 X101.284 Y115.978 E16.05559
G1 X101.284 Y115.293 E16.06549
G1 X125.293 Y91.284 E16.55638
G1 X124.608 Y91.284 E16.56628
G1 X101.284 Y114.608 E17.04317
G1 X101.284 Y113.924 E17.05306
G1 X123.924 Y91.284 E17.51596
G1 X123.239 Y91.284 E17.52586
G1 X101.284 Y113.239 E17.97475
G1 X101.284 Y112.555 E17.98465
G1 X122.555 Y91.284 E18.41955
G1 X121.870 Y91.284 E18.42945
G1 X101.284 Y111.870 E18.85035
G1 X101.284 Y111.185 E18.86025
G1 X121.185 Y91.284 E19.26715
G1 X120.501 Y91.284 E19.27705
G1 X101.284 Y110.501 E19.66996
G1 X101.284 Y109.816 E19.67986
G1 X119.816 Y91.284 E20.05877
G1 X119.132 Y91.284 E20.06867
G1 X101.284 Y109.132 E20.43358
G1 X101.284 Y108.447 E20.44348
G1 X118.447 Y91.284 E20.79440
G1 X117.763 Y91.284 E20.80429
G1 X101.284 Y107.763 E21.14121
G1 X101.284 Y107.078 E21.15111
G1 X117.078 Y91.284 E21.47403
G1 X116.393 Y91.284 E21.48393
G1 X101.284 Y106.393 E21.79286
G1 X101.284 Y105.709 E21.80275
G1 X115.709 Y91.284 E22.09768
G1 X115.024 Y91.284 E22.10758
G1 X101.284 Y105.024 E22.38851
G1 X101.284 Y104.340 E22.39841
G1 X114.340 Y91.284 E22.66534
G1 X113.655 Y91.284 E22.67524
G1 X101.284 Y103.655 E22.92818
