; generated by Slic3r 1.0.0RC2 on 2014-02-13 at 13:15:12

; layer_height = 0.1
; perimeters = 2
; top_solid_layers = 5
; bottom_solid_layers = 2
; fill_density = 0.2
; perimeter_speed = 60
; infill_speed = 50
; travel_speed = 200
; nozzle_diameter = 0.4
; filament_diameter = 2.92
; extrusion_multiplier = 1
; perimeters extrusion width = 0.40mm
; infill extrusion width = 1.28mm
; solid infill extrusion width = 0.50mm
; top infill extrusion width = 0.30mm
; first layer extrusion width = 0.39mm

G21 ; set units to millimeters
M107
M190 S55 ; wait for bed temperature to be reached
M104 S215 ; set temperature
G28 ; home all axes
M109 S215 ; wait for temperature to be reached
G90 ; use absolute coordinates
G92 E0
M82 ; use absolute distances for extrusion
M204 S500
G1 F2100.000 E-2.00000
G1 Z0.350 F12000.000
G92 E0
G1 X86.295 Y78.255 F12000.000
G1 Z0.300 F12000.000
G1 E2.00000 F2100.000
G1 X87.115 Y77.545 E2.01906 F1200
G1 X87.515 Y77.235 E2.02795
G1 X88.375 Y76.635 E2.04637
G1 X89.305 Y76.145 E2.06483
G1 X89.675 Y75.975 E2.07199
G1 X90.785 Y75.555 E2.09284
G1 X91.935 Y75.275 E2.11363
G1 X92.395 Y75.195 E2.12183
G1 X93.965 Y75.055 E2.14952
G1 X136.025 Y75.055 E2.88842
G1 X137.595 Y75.195 E2.91611
G1 X138.055 Y75.275 E2.92431
G1 X139.205 Y75.555 E2.94510
G1 X140.315 Y75.975 E2.96595
G1 X140.685 Y76.145 E2.97311
G1 X141.615 Y76.635 E2.99157
G1 X142.475 Y77.235 E3.01000
G1 X142.875 Y77.545 E3.01889
G1 X143.695 Y78.255 E3.03794
G1 X144.425 Y79.065 E3.05710
G1 X144.705 Y79.415 E3.06497
G1 X145.265 Y80.195 E3.08184
G1 X145.745 Y81.045 E3.09899
G1 X145.935 Y81.425 E3.10645
G1 X148.925 Y88.135 E3.23550
G1 X149.285 Y89.105 E3.25368
G1 X149.535 Y90.105 E3.27179
G1 X149.615 Y90.525 E3.27930
G1 X149.765 Y91.715 E3.30037
G1 X149.755 Y92.915 E3.32145
G1 X149.725 Y93.325 E3.32867
G1 X149.585 Y94.375 E3.34728
G1 X146.965 Y108.085 E3.59249
G1 X146.835 Y108.685 E3.60328
G1 X146.455 Y109.935 E3.62623
G1 X145.805 Y111.285 E3.65255
G1 X145.035 Y112.435 E3.67687
G1 X129.775 Y131.955 E4.11214
G1 X129.085 Y132.735 E4.13044
G1 X128.105 Y133.605 E4.15346
G1 X127.435 Y134.105 E4.16814
G1 X126.725 Y134.535 E4.18273
G1 X125.555 Y135.105 E4.20559
G1 X125.135 Y135.275 E4.21355
G1 X123.705 Y135.715 E4.23983
G1 X122.215 Y135.925 E4.26627
G1 X121.865 Y135.945 E4.27243
G1 X121.345 Y135.965 E4.28157
G1 X108.645 Y135.965 E4.50468
G1 X107.865 Y135.925 E4.51840
G1 X107.515 Y135.895 E4.52457
G1 X106.245 Y135.705 E4.54713
G1 X105.025 Y135.335 E4.56952
G1 X104.605 Y135.175 E4.57742
G1 X103.325 Y134.565 E4.60233
G1 X103.115 Y134.445 E4.60658
G1 X102.055 Y133.735 E4.62899
G1 X101.835 Y133.565 E4.63388
G1 X100.975 Y132.815 E4.65392
G1 X100.215 Y131.955 E4.67409
G1 X85.015 Y112.515 E5.10760
G1 X84.175 Y111.235 E5.13450
G1 X84.045 Y110.995 E5.13929
G1 X83.595 Y110.025 E5.15808
G1 X83.255 Y109.015 E5.17680
G1 X83.185 Y108.755 E5.18153
G1 X83.035 Y108.095 E5.19342
G1 X80.405 Y94.385 E5.43866
G1 X80.265 Y93.325 E5.45745
G1 X80.235 Y92.915 E5.46467
G1 X80.225 Y91.715 E5.48575
G1 X80.375 Y90.525 E5.50682
G1 X80.455 Y90.105 E5.51433
G1 X80.705 Y89.105 E5.53244
G1 X81.065 Y88.135 E5.55062
G1 X83.885 Y81.795 E5.67252
G1 X84.245 Y81.045 E5.68713
G1 X84.725 Y80.195 E5.70428
G1 X85.285 Y79.415 E5.72115
G1 X85.565 Y79.065 E5.72902
G1 X86.256 Y78.299 E5.74715
G1 X86.575 Y78.535 F12000.000
G1 X87.355 Y77.855 E5.76533 F1200
G1 X87.755 Y77.545 E5.77422
G1 X88.585 Y76.975 E5.79190
G1 X89.465 Y76.505 E5.80943
G1 X89.835 Y76.335 E5.81658
G1 X90.895 Y75.925 E5.83655
G1 X91.995 Y75.665 E5.85641
G1 X92.455 Y75.585 E5.86461
G1 X93.965 Y75.455 E5.89124
G1 X136.025 Y75.455 E6.63013
G1 X137.535 Y75.585 E6.65676
G1 X137.995 Y75.665 E6.66496
G1 X139.095 Y75.925 E6.68481
G1 X140.155 Y76.335 E6.70478
G1 X140.525 Y76.505 E6.71193
G1 X141.405 Y76.975 E6.72946
G1 X142.235 Y77.545 E6.74715
G1 X142.635 Y77.855 E6.75604
G1 X143.415 Y78.535 E6.77422
G1 X144.115 Y79.305 E6.79250
G1 X144.395 Y79.655 E6.80037
G1 X144.935 Y80.415 E6.81675
G1 X145.395 Y81.215 E6.83296
G1 X145.585 Y81.595 E6.84043
G1 X148.565 Y88.295 E6.96925
G1 X148.915 Y89.225 E6.98670
G1 X149.155 Y90.185 E7.00409
G1 X149.235 Y90.605 E7.01160
G1 X149.375 Y91.735 E7.03160
G1 X149.365 Y92.885 E7.05181
G1 X149.335 Y93.295 E7.05903
G1 X149.205 Y94.305 E7.07692
G1 X146.585 Y108.015 E7.32213
G1 X146.455 Y108.605 E7.33274
G1 X146.085 Y109.795 E7.35464
G1 X145.555 Y110.935 E7.37672
G1 X145.465 Y111.095 E7.37995
G1 X144.725 Y112.195 E7.40324
G1 X129.465 Y131.715 E7.83851
G1 X128.805 Y132.465 E7.85606
G1 X128.075 Y133.135 E7.87347
G1 X127.865 Y133.305 E7.87821
G1 X127.225 Y133.775 E7.89216
G1 X126.545 Y134.185 E7.90611
G1 X125.415 Y134.735 E7.92819
G1 X124.995 Y134.905 E7.93615
G1 X123.615 Y135.335 E7.96154
G1 X122.195 Y135.535 E7.98674
G1 X121.845 Y135.555 E7.99289
G1 X108.645 Y135.565 E8.22479
G1 X107.895 Y135.535 E8.23797
G1 X107.545 Y135.505 E8.24414
G1 X106.335 Y135.315 E8.26566
G1 X105.165 Y134.965 E8.28712
G1 X104.745 Y134.805 E8.29501
G1 X103.515 Y134.225 E8.31890
G1 X103.305 Y134.105 E8.32315
G1 X102.295 Y133.425 E8.34454
G1 X102.075 Y133.255 E8.34943
G1 X101.255 Y132.535 E8.36860
G1 X100.525 Y131.715 E8.38788
G1 X85.325 Y112.275 E8.82140
G1 X84.525 Y111.045 E8.84718
G1 X83.955 Y109.885 E8.86988
G1 X83.635 Y108.905 E8.88799
G1 X83.415 Y108.015 E8.90410
G1 X80.785 Y94.305 E9.14934
G1 X80.655 Y93.295 E9.16723
G1 X80.625 Y92.885 E9.17445
G1 X80.615 Y91.735 E9.19466
G1 X80.755 Y90.605 E9.21466
G1 X80.835 Y90.185 E9.22217
G1 X81.075 Y89.225 E9.23956
G1 X81.425 Y88.295 E9.25701
G1 X81.615 Y87.845 E9.26559
G1 X84.235 Y81.955 E9.37884
G1 X84.595 Y81.215 E9.39330
G1 X85.055 Y80.415 E9.40951
G1 X85.595 Y79.655 E9.42589
G1 X85.875 Y79.305 E9.43376
G1 X86.535 Y78.579 E9.45101
G1 X86.845 Y78.815 F12000.000
G1 X87.595 Y78.165 E9.46845 F1200
G1 X87.995 Y77.855 E9.47734
G1 X88.785 Y77.305 E9.49425
G1 X89.635 Y76.855 E9.51114
G1 X90.005 Y76.685 E9.51830
G1 X91.015 Y76.305 E9.53725
G1 X92.065 Y76.045 E9.55626
G1 X92.525 Y75.965 E9.56446
G1 X93.965 Y75.845 E9.58984
G1 X136.025 Y75.845 E10.32874
G1 X137.465 Y75.965 E10.35412
G1 X137.925 Y76.045 E10.36233
G1 X138.975 Y76.305 E10.38133
G1 X139.985 Y76.685 E10.40029
G1 X140.355 Y76.855 E10.40744
G1 X141.205 Y77.305 E10.42434
G1 X141.995 Y77.855 E10.44125
G1 X142.395 Y78.165 E10.45014
G1 X143.145 Y78.815 E10.46757
G1 X143.805 Y79.555 E10.48499
G1 X144.085 Y79.905 E10.49287
G1 X144.605 Y80.625 E10.50847
G1 X145.045 Y81.395 E10.52405
G1 X145.235 Y81.775 E10.53151
G1 X148.205 Y88.455 E10.65994
G1 X148.535 Y89.335 E10.67645
G1 X148.765 Y90.255 E10.69311
G1 X148.845 Y90.675 E10.70062
G1 X148.985 Y91.765 E10.71993
G1 X148.975 Y92.855 E10.73908
G1 X148.945 Y93.265 E10.74630
G1 X148.815 Y94.235 E10.76349
G1 X146.135 Y108.255 E11.01425
G1 X146.075 Y108.515 E11.01894
G1 X145.725 Y109.655 E11.03989
G1 X145.115 Y110.895 E11.06417
G1 X144.415 Y111.955 E11.08648
G1 X129.155 Y131.475 E11.52175
G1 X128.525 Y132.185 E11.53843
G1 X127.825 Y132.825 E11.55509
G1 X127.615 Y132.995 E11.55984
G1 X127.005 Y133.445 E11.57316
G1 X126.355 Y133.845 E11.58656
G1 X125.265 Y134.375 E11.60786
G1 X124.845 Y134.545 E11.61582
G1 X123.535 Y134.955 E11.63993
G1 X122.175 Y135.145 E11.66405
G1 X121.825 Y135.165 E11.67021
G1 X108.645 Y135.175 E11.90175
G1 X107.925 Y135.145 E11.91441
G1 X107.575 Y135.115 E11.92059
G1 X106.425 Y134.935 E11.94103
G1 X105.305 Y134.595 E11.96160
G1 X104.885 Y134.435 E11.96949
G1 X103.715 Y133.885 E11.99220
G1 X103.505 Y133.765 E11.99645
G1 X102.535 Y133.115 E12.01697
G1 X102.315 Y132.945 E12.02185
G1 X101.525 Y132.255 E12.04028
G1 X100.835 Y131.475 E12.05857
G1 X85.635 Y112.035 E12.49209
G1 X84.865 Y110.865 E12.51669
G1 X84.735 Y110.625 E12.52149
G1 X84.325 Y109.735 E12.53870
G1 X84.015 Y108.805 E12.55593
G1 X83.805 Y107.945 E12.57148
G1 X81.175 Y94.235 E12.81672
G1 X81.045 Y93.265 E12.83391
G1 X81.015 Y92.855 E12.84114
G1 X81.005 Y91.765 E12.86029
G1 X81.145 Y90.675 E12.87959
G1 X81.225 Y90.255 E12.88710
G1 X81.455 Y89.335 E12.90376
G1 X81.785 Y88.455 E12.92027
G1 X81.975 Y88.005 E12.92885
G1 X84.595 Y82.115 E13.04210
G1 X84.945 Y81.395 E13.05617
G1 X85.385 Y80.625 E13.07175
G1 X85.905 Y79.905 E13.08735
G1 X86.185 Y79.555 E13.09522
G1 X86.806 Y78.859 E13.11161
G1 F2100.000 E11.11161
G1 Z0.350 F12000.000
G92 E0
G1 X100.163 Y108.322 F12000.000
G1 Z0.300 F12000.000
G1 E2.00000 F2100.000
G1 X100.431 Y108.218 E2.00505 F1200
G1 X100.668 Y108.691 E2.01434
G1 X101.085 Y109.415 E2.02901
G1 X101.658 Y110.230 E2.04652
G1 X102.099 Y110.656 E2.05730
G1 X102.479 Y110.951 E2.06575
G1 X103.456 Y111.355 E2.08432
G1 X103.972 Y111.414 E2.09344
G1 X104.223 Y111.462 E2.09793
G1 X104.713 Y111.443 E2.10654
G1 X106.199 Y112.169 E2.13560
G1 X106.943 Y112.673 E2.15138
G1 X107.502 Y113.082 E2.16356
G1 X108.035 Y113.522 E2.17569
G1 X108.468 Y113.934 E2.18620
G1 X108.819 Y114.292 E2.19501
G1 X109.157 Y114.744 E2.20492
G1 X109.313 Y114.991 E2.21005
G1 X109.451 Y115.293 E2.21589
G1 X109.553 Y115.435 E2.21896
G1 X109.813 Y116.192 E2.23301
G1 X109.950 Y116.492 E2.23880
G1 X110.450 Y116.984 E2.25114
G1 X111.133 Y117.004 E2.26314
G1 X111.505 Y116.850 E2.27021
G1 X111.808 Y116.620 E2.27688
G1 X112.400 Y116.351 E2.28832
G1 X112.826 Y116.131 E2.29673
G1 X113.226 Y115.880 E2.30503
G1 X113.543 Y115.549 E2.31309
G1 X113.730 Y115.290 E2.31870
G1 X113.961 Y114.549 E2.33234
G1 X113.819 Y113.893 E2.34413
G1 X113.769 Y113.549 E2.35024
G1 X113.769 Y113.292 E2.35474
G1 X113.654 Y112.526 E2.36836
G1 X113.545 Y111.581 E2.38508
G1 X113.415 Y110.771 E2.39949
G1 X113.258 Y109.056 E2.42974
G1 X113.197 Y108.042 E2.44758
G1 X113.167 Y106.991 E2.46605
G1 X113.190 Y105.966 E2.48406
G1 X113.260 Y105.052 E2.50017
G1 X113.381 Y104.353 E2.51262
G1 X113.552 Y103.890 E2.52130
G1 X113.744 Y103.665 E2.52649
G1 X113.977 Y103.550 E2.53105
G1 X114.343 Y103.456 E2.53769
G1 X114.767 Y103.526 E2.54524
G1 X115.004 Y103.492 E2.54945
G1 X116.267 Y103.678 E2.57187
G1 X116.448 Y103.890 E2.57677
G1 X116.619 Y104.353 E2.58545
G1 X116.649 Y104.514 E2.58832
G1 X116.740 Y105.052 E2.59790
G1 X116.799 Y105.808 E2.61123
G1 X116.832 Y107.033 E2.63275
G1 X116.803 Y108.042 E2.65049
G1 X116.742 Y109.056 E2.66833
G1 X116.585 Y110.771 E2.69858
G1 X116.455 Y111.581 E2.71299
G1 X116.346 Y112.526 E2.72971
G1 X116.231 Y113.292 E2.74332
G1 X116.231 Y113.549 E2.74783
G1 X116.181 Y113.893 E2.75393
G1 X116.039 Y114.549 E2.76573
G1 X116.270 Y115.290 E2.77937
G1 X116.457 Y115.549 E2.78498
G1 X116.774 Y115.880 E2.79303
G1 X117.174 Y116.131 E2.80133
G1 X117.600 Y116.351 E2.80974
G1 X118.192 Y116.620 E2.82118
G1 X118.495 Y116.850 E2.82785
G1 X118.867 Y117.004 E2.83493
G1 X119.550 Y116.984 E2.84693
G1 X120.050 Y116.492 E2.85927
G1 X120.187 Y116.192 E2.86505
G1 X120.447 Y115.435 E2.87911
G1 X120.549 Y115.293 E2.88218
G1 X120.687 Y114.991 E2.88802
G1 X120.843 Y114.744 E2.89315
G1 X121.181 Y114.292 E2.90306
G1 X121.532 Y113.934 E2.91186
G1 X121.965 Y113.522 E2.92237
G1 X122.498 Y113.082 E2.93451
G1 X123.057 Y112.673 E2.94668
G1 X123.801 Y112.169 E2.96246
G1 X125.287 Y111.443 E2.99153
G1 X125.777 Y111.462 E3.00014
G1 X126.028 Y111.414 E3.00462
G1 X126.544 Y111.355 E3.01374
G1 X127.521 Y110.951 E3.03232
G1 X127.901 Y110.656 E3.04077
G1 X128.342 Y110.230 E3.05155
G1 X128.915 Y109.415 E3.06905
G1 X129.332 Y108.691 E3.08373
G1 X129.569 Y108.218 E3.09302
G1 X129.837 Y108.321 E3.09807
G1 X129.675 Y108.904 E3.10869
G1 X129.209 Y110.329 E3.13503
G1 X128.277 Y112.779 E3.18108
G1 X127.887 Y113.770 E3.19979
G1 X127.509 Y114.645 E3.21653
G1 X126.350 Y117.223 E3.26618
G1 X125.787 Y118.308 E3.28766
G1 X125.345 Y119.265 E3.30617
G1 X124.836 Y120.197 E3.32483
G1 X124.370 Y120.969 E3.34068
G1 X124.002 Y121.477 E3.35170
G1 X123.493 Y122.249 E3.36794
G1 X123.111 Y122.926 E3.38159
G1 X122.855 Y123.468 E3.39213
G1 X122.549 Y124.199 E3.40604
G1 X122.333 Y124.811 E3.41745
G1 X122.081 Y125.310 E3.42727
G1 X121.861 Y125.607 E3.43377
G1 X121.693 Y125.719 E3.43731
G1 X121.410 Y125.829 E3.44265
G1 X121.307 Y125.468 E3.44925
G1 X121.431 Y125.254 E3.45358
G1 X121.409 Y124.855 E3.46060
G1 X121.485 Y124.658 E3.46431
G1 X121.820 Y123.267 E3.48944
G1 X121.872 Y122.748 E3.49861
G1 X121.857 Y122.220 E3.50788
G1 X121.815 Y122.036 E3.51120
G1 X122.093 Y121.633 E3.51979
G1 X121.165 Y120.472 E3.54590
G1 X119.997 Y120.940 E3.56801
G1 X119.626 Y121.501 E3.57982
G1 X119.525 Y121.748 E3.58451
G1 X119.401 Y121.936 E3.58847
G1 X119.204 Y122.179 E3.59396
G1 X118.981 Y122.539 E3.60139
G1 X118.782 Y122.782 E3.60692
G1 X118.558 Y123.001 E3.61242
G1 X118.225 Y123.252 E3.61975
G1 X117.322 Y123.702 E3.63747
G1 X116.700 Y123.457 E3.64921
G1 X116.244 Y123.759 E3.65881
G1 X115.930 Y123.912 E3.66497
G1 X115.719 Y123.967 E3.66879
G1 X115.560 Y123.959 E3.67159
G1 X115.005 Y123.986 E3.68136
G1 X114.440 Y123.959 E3.69129
G1 X114.281 Y123.967 E3.69409
G1 X114.070 Y123.912 E3.69791
G1 X113.756 Y123.759 E3.70406
G1 X113.300 Y123.457 E3.71367
G1 X112.678 Y123.702 E3.72541
G1 X111.775 Y123.252 E3.74313
G1 X111.442 Y123.001 E3.75045
G1 X111.218 Y122.782 E3.75595
G1 X111.019 Y122.539 E3.76149
G1 X110.796 Y122.179 E3.76892
G1 X110.599 Y121.936 E3.77441
G1 X110.475 Y121.748 E3.77837
G1 X110.374 Y121.501 E3.78306
G1 X110.003 Y120.940 E3.79486
G1 X108.835 Y120.472 E3.81698
G1 X107.907 Y121.633 E3.84309
G1 X108.185 Y122.036 E3.85168
G1 X108.146 Y122.204 E3.85471
G1 X108.128 Y122.748 E3.86426
G1 X108.180 Y123.267 E3.87344
G1 X108.515 Y124.658 E3.89856
G1 X108.591 Y124.855 E3.90227
G1 X108.570 Y125.241 E3.90906
G1 X108.693 Y125.466 E3.91358
G1 X108.592 Y125.822 E3.92008
G1 X108.303 Y125.713 E3.92550
G1 X108.135 Y125.602 E3.92905
G1 X107.919 Y125.310 E3.93543
G1 X107.717 Y124.923 E3.94310
G1 X107.451 Y124.199 E3.95665
G1 X107.145 Y123.468 E3.97056
G1 X106.889 Y122.926 E3.98110
G1 X106.507 Y122.249 E3.99475
G1 X105.998 Y121.477 E4.01099
G1 X105.630 Y120.969 E4.02202
G1 X105.164 Y120.197 E4.03786
G1 X104.655 Y119.265 E4.05652
G1 X104.213 Y118.308 E4.07503
G1 X103.650 Y117.223 E4.09651
G1 X102.491 Y114.645 E4.14616
G1 X102.113 Y113.770 E4.16290
G1 X101.723 Y112.779 E4.18161
G1 X100.791 Y110.329 E4.22766
G1 X100.325 Y108.904 E4.25401
G1 X100.179 Y108.378 E4.26359
G1 F2100.000 E2.26359
G1 Z0.350 F12000.000
G92 E0
G1 X101.664 Y103.095 F12000.000
G1 Z0.300 F12000.000
G1 E2.00000 F2100.000
G1 X101.577 Y103.056 E2.00169 F1200
G1 X101.625 Y102.541 E2.01077
G1 X101.605 Y101.738 E2.02488
G1 X101.642 Y101.304 E2.03253
G1 X101.679 Y101.220 E2.03414
G1 X101.754 Y101.122 E2.03631
G1 X101.864 Y101.022 E2.03893
G1 X102.004 Y100.944 E2.04174
G1 X102.192 Y100.898 E2.04513
G1 X102.388 Y100.892 E2.04858
G1 X102.512 Y100.916 E2.05079
G1 X102.738 Y101.046 E2.05537
G1 X102.938 Y101.278 E2.06076
G1 X103.027 Y101.535 E2.06553
G1 X102.999 Y101.789 E2.07003
G1 X102.963 Y101.880 E2.07174
G1 X102.822 Y102.069 E2.07589
G1 X102.085 Y102.661 E2.09249
G1 X101.705 Y103.053 E2.10208
G1 F2100.000 E0.10208
G1 Z0.350 F12000.000
G92 E0
G1 X100.968 Y104.276 F12000.000
G1 Z0.300 F12000.000
G1 E2.00000 F2100.000
G1 X100.754 Y104.743 E2.00901 F1200
G1 X100.391 Y105.938 E2.03096
G1 X100.096 Y106.387 E2.04039
G1 X99.953 Y106.809 E2.04822
G1 X100.008 Y107.060 E2.05274
G1 X99.978 Y107.566 E2.06164
G1 X99.869 Y107.594 E2.06361
G1 X99.630 Y107.211 E2.07155
G1 X99.435 Y107.025 E2.07627
G1 X99.077 Y106.758 E2.08412
G1 X98.599 Y106.653 E2.09271
G1 X98.397 Y106.588 E2.09645
G1 X98.241 Y106.534 E2.09935
G1 X97.900 Y106.361 E2.10606
G1 X97.354 Y106.148 E2.11636
G1 X97.166 Y106.109 E2.11973
G1 X96.684 Y105.959 E2.12859
G1 X97.102 Y105.666 E2.13755
G1 X97.308 Y105.479 E2.14243
G1 X97.468 Y105.290 E2.14680
G1 X97.645 Y105.016 E2.15253
G1 X97.766 Y104.803 E2.15682
G1 X97.865 Y104.507 E2.16231
G1 X97.961 Y103.875 E2.17354
G1 X98.472 Y104.157 E2.18379
G1 X98.725 Y104.275 E2.18871
G1 X98.946 Y104.356 E2.19284
G1 X99.539 Y104.466 E2.20343
G1 X100.275 Y104.446 E2.21637
G1 X100.910 Y104.290 E2.22786
G1 F2100.000 E0.22786
G1 Z0.350 F12000.000
G92 E0
G1 X95.554 Y105.961 F12000.000
G1 Z0.300 F12000.000
G1 E2.00000 F2100.000
G1 X95.549 Y106.122 E2.00283 F1200
G1 X94.037 Y106.449 E2.03000
G1 X93.733 Y106.499 E2.03542
G1 X93.510 Y106.513 E2.03935
G1 X93.252 Y106.470 E2.04394
G1 X93.112 Y106.381 E2.04685
G1 X93.037 Y106.267 E2.04925
